X: 9918
T: Destitution, The
R: reel
M: 4/4
K: Eminor
|:E2 BE cEBE|dcBc ABGA|(3EEE BE cEBc|AGFG AdBG|
D~E3 cEBE|dcBc ABGF|EB{d}BA GBFB|1 AGFA BEED:|
[2 AGFA BEEA||
|:Bede bege|Bede fg a2|Bede bege|BcBA GEEA|
Bede bege|Bede fg a2|bgaf gfed|1 BdAc BEEA:|
[2 edBA GAFG||

